brandFactory_export/3.Masa/Conferencia_3Masa.svg

<?xml version="1.0" encoding="UTF-8"?>
<svg width="24px" height="24px" viewBox="0 0 24 24" version="1.1" xmlns="http://www.w3.org/2000/svg" xmlns:xlink="http://www.w3.org/1999/xlink">
    <title>3.Masa/Conferencia_3Masa</title>
    <g id="Symbols" stroke="none" stroke-width="1" fill="none" fill-rule="evenodd">
        <g id="3.Masa/Conferencia_3Masa" fill="#5CB615" fill-rule="nonzero">
            <path d="M20.3327731,4.84033613 C21.092437,4.84033613 21.707563,5.50252101 21.707563,6.32268908 L21.707563,7.6302521 C21.707563,8.45042017 21.092437,9.11260504 20.3327731,9.11260504 L19.8756303,9.11260504 L19.8756303,9.11596639 L3.8487395,9.11596639 L3.8487395,9.11260504 L3.39159664,9.11260504 C2.63193277,9.11260504 2.01680672,8.45042017 2.01680672,7.6302521 L2.01680672,6.31932773 C2.01680672,5.49915966 2.63193277,4.83697479 3.39159664,4.83697479 L6.75966387,4.83697479 L6.75966387,4.03361345 C6.75966387,3.90252101 6.80672269,3.77815126 6.89411765,3.68403361 L7.64369748,2.87731092 C7.47226891,2.69243697 7.37815126,2.44369748 7.37815126,2.18151261 C7.37815126,1.91932773 7.47226891,1.66722689 7.64705882,1.48235294 L8.72605042,0.319327731 C8.89747899,0.134453782 9.13277311,0.0302521008 9.37478992,0.0302521008 C9.61680672,0.0302521008 9.85210084,0.134453782 10.0235294,0.319327731 L10.6789916,1.02857143 C11.0352941,1.41512605 11.0352941,2.03697479 10.6789916,2.42352941 L9.6,3.58319328 C9.42184874,3.77815126 9.18655462,3.87226891 8.9512605,3.87226891 C8.71932773,3.87226891 8.48403361,3.77478992 8.30252101,3.58319328 L8.28907563,3.5697479 L7.67394958,4.23193277 L7.67394958,4.8302521 L16.0504202,4.8302521 L16.0504202,4.23193277 L15.4319328,3.56302521 L15.4151261,3.57983193 C15.2369748,3.77478992 15.0016807,3.86890756 14.7663866,3.86890756 C14.5310924,3.86890756 14.2991597,3.77142857 14.1176471,3.57983193 L13.0386555,2.42016807 C12.6823529,2.03361345 12.6823529,1.40840336 13.0386555,1.02521008 L13.697479,0.315966387 C13.8689076,0.131092437 14.1008403,0.0268907563 14.3462185,0.0268907563 C14.5882353,0.0268907563 14.8235294,0.131092437 14.994958,0.315966387 L16.0739496,1.4789916 C16.2453782,1.66386555 16.3428571,1.91596639 16.3428571,2.17815126 C16.3428571,2.43361345 16.2453782,2.68235294 16.0806723,2.86386555 L16.8369748,3.67731092 C16.9243697,3.77142857 16.9714286,3.89579832 16.9714286,4.02689076 L16.9714286,4.8302521 L20.3327731,4.8302521 L20.3327731,4.84033613 Z M3.8487395,10.2655462 L3.8487395,9.90252101 L19.8756303,9.90252101 L19.8756303,10.2655462 C19.8756303,11.0823529 19.2605042,11.7478992 18.5008403,11.7478992 L17.1159664,11.7478992 L17.1159664,11.7512605 L6.60504202,11.7512605 L6.60504202,11.7478992 L5.22016807,11.7478992 C4.46386555,11.7478992 3.8487395,11.0823529 3.8487395,10.2655462 Z M6.60504202,18.8806723 L6.60504202,12.5378151 L17.1159664,12.5378151 L17.1159664,18.8806723 L6.60504202,18.8806723 Z M18.4739496,19.6672269 C19.2336134,19.6672269 19.8487395,20.3294118 19.8487395,21.1495798 L19.8487395,22.1781513 C19.8487395,22.9983193 19.2336134,23.6605042 18.4739496,23.6605042 L5.24705882,23.6605042 C4.48739496,23.6605042 3.87226891,22.9983193 3.87226891,22.1781513 L3.87226891,21.1495798 C3.87226891,20.3394958 4.47394958,19.6840336 5.22016807,19.6705882 L17.4722689,19.6705882 L17.4722689,19.6672269 L18.4739496,19.6672269 L18.4739496,19.6672269 Z" id="Conferencia_3Masa"></path>
        </g>
    </g>
</svg>

<svg width="24" height="24" viewBox="0 0 24 24" xmlns="http://www.w3.org/2000/svg"><path d="M20.333 4.84c.76 0 1.375.663 1.375 1.483V7.63c0 .82-.616 1.483-1.375 1.483h-.457v.003H3.849v-.003h-.457c-.76 0-1.375-.663-1.375-1.483V6.32c0-.82.615-1.483 1.375-1.483H6.76v-.803a.51.51 0 01.134-.35l.75-.807a1.02 1.02 0 01-.266-.695c0-.263.094-.515.27-.7L8.725.32A.888.888 0 019.375.03c.242 0 .477.104.649.29l.655.709a1.044 1.044 0 010 1.395L9.6 3.584a.872.872 0 01-.649.288.896.896 0 01-.648-.289l-.014-.013-.615.662v.598h8.376v-.598l-.618-.669-.017.017a.872.872 0 01-1.297 0l-1.08-1.16a1.044 1.044 0 010-1.395l.66-.709a.882.882 0 01.648-.29c.242 0 .478.105.649.29l1.079 1.163a1.031 1.031 0 01.007 1.385l.756.813a.51.51 0 01.134.35v.803h3.362v.01zM3.849 10.266v-.363h16.027v.363c0 .816-.615 1.482-1.375 1.482h-1.385v.003H6.605v-.003H5.22c-.756 0-1.371-.666-1.371-1.482zm2.756 8.615v-6.343h10.511v6.343H6.605zm11.869.786c.76 0 1.375.662 1.375 1.483v1.028c0 .82-.615 1.483-1.375 1.483H5.247c-.76 0-1.375-.663-1.375-1.483V21.15c0-.81.602-1.466 1.348-1.48h12.252v-.003h1.002z" fill="#5CB615" fill-rule="nonzero"/></svg>
